public/img/unknownportrait.svg

<svg xmlns="http://www.w3.org/2000/svg" xmlns:xlink="http://www.w3.org/1999/xlink" version="1.1" x="0px" y="0px" viewBox="360 0 100 100" enable-background="new 360 0 100 100" xml:space="preserve"><path fill="#000000" stroke="#1C75BC" stroke-width="3.7713" stroke-miterlimit="10" d="M18.185-125.085  c0,15.177-11.275,29.517-25.184,29.517s-25.186-14.339-25.186-29.517c0-15.176,11.276-25.444,25.186-25.444  C6.909-150.529,18.185-140.261,18.185-125.085z"></path><path fill="#000000" stroke="#1C75BC" stroke-width="4" stroke-miterlimit="10" d="M16.318-96.485  C10.415-89.553,2.348-85.04-6.549-85.04c-9.053,0-17.248-4.67-23.178-11.81c-13.346,8.131-22.312,23.2-22.312,40.451h90.075  C38.037-73.393,29.338-88.273,16.318-96.485z"></path><path d="M75.645,27.986c0,15.452-11.479,30.053-25.643,30.053S24.357,43.438,24.357,27.986c0-15.455,11.481-25.908,25.645-25.908  C64.164,2.078,75.645,12.531,75.645,27.986z"></path><path d="M73.744,57.105C67.732,64.164,59.52,68.759,50.46,68.759c-9.217,0-17.561-4.755-23.599-12.024  C13.272,65.014,4.144,80.355,4.144,97.921h91.713C95.857,80.617,87.001,65.467,73.744,57.105z"></path><path d="M186.597,70.69c-3.813-2.105-6.429-5.08-7.222-6.651c-1.367-2.707,2.187-8.497,4.573-11.892  c0.69-0.814,1.335-1.686,1.936-2.601c0.017-0.021,0.025-0.031,0.025-0.031l-0.004,0c3.022-4.62,4.845-10.419,4.845-16.365  c0-13.437-9.289-22.525-20.749-22.525c-11.462,0-20.751,9.088-20.751,22.525c0,5.939,1.817,11.731,4.833,16.348l-0.003,0  c0,0,0.009,0.011,0.023,0.029c0.543,0.829,1.125,1.618,1.741,2.364c2.35,3.359,6.056,9.374,4.655,12.147  c-0.8,1.585-3.463,4.586-7.313,6.726c-11.021,6.126-20.104,12.351-20.104,21.902h73.834  C206.917,83.058,197.726,76.837,186.597,70.69z"></path><g><path fill="none" d="M290,10.417c-21.827,0-39.584,17.757-39.584,39.583c0,11.497,4.931,21.861,12.784,29.1   c1.486-5.537,7.42-9.489,14.428-13.385c2.833-1.575,4.793-3.783,5.381-4.95c1.03-2.041-1.696-6.466-3.426-8.938   c-0.453-0.549-0.882-1.131-1.281-1.74c-0.011-0.014-0.018-0.021-0.018-0.021h0.003c-2.22-3.397-3.557-7.66-3.557-12.03   c0-9.889,6.836-16.576,15.271-16.576c8.433,0,15.269,6.688,15.269,16.576c0,4.375-1.341,8.642-3.564,12.043h0.002   c0,0-0.006,0.008-0.019,0.022c-0.441,0.674-0.916,1.314-1.424,1.914c-1.757,2.498-4.372,6.758-3.365,8.75   c0.583,1.157,2.509,3.347,5.314,4.896c7.087,3.914,13.076,7.88,14.566,13.457c7.864-7.238,12.803-17.61,12.803-29.117   C329.583,28.173,311.826,10.417,290,10.417z"></path><path d="M290,4.417c-25.135,0-45.584,20.449-45.584,45.583S264.865,95.584,290,95.584S335.583,75.135,335.583,50   S315.135,4.417,290,4.417z M316.78,79.117c-1.49-5.577-7.479-9.543-14.566-13.457c-2.806-1.549-4.731-3.738-5.314-4.896   c-1.007-1.992,1.608-6.252,3.365-8.75c0.508-0.6,0.982-1.24,1.424-1.914c0.013-0.015,0.019-0.022,0.019-0.022h-0.002   c2.224-3.401,3.564-7.668,3.564-12.043c0-9.889-6.836-16.576-15.269-16.576c-8.435,0-15.271,6.688-15.271,16.576   c0,4.37,1.337,8.632,3.557,12.03h-0.003c0,0,0.007,0.008,0.018,0.021c0.399,0.609,0.828,1.191,1.281,1.74   c1.729,2.473,4.456,6.897,3.426,8.938c-0.588,1.167-2.548,3.375-5.381,4.95C270.62,69.61,264.687,73.563,263.2,79.1   c-7.854-7.238-12.784-17.603-12.784-29.1c0-21.827,17.757-39.583,39.584-39.583c21.826,0,39.583,17.757,39.583,39.583   C329.583,61.507,324.645,71.879,316.78,79.117z"></path></g><path d="M425.153,38.639c0,9.131-6.783,17.759-15.152,17.759s-15.154-8.628-15.154-17.759c0-9.132,6.784-15.31,15.154-15.31  C418.369,23.329,425.153,29.507,425.153,38.639z"></path><path d="M410,4.417c-25.135,0-45.584,20.449-45.584,45.583S384.865,95.584,410,95.584S455.583,75.135,455.583,50  S435.135,4.417,410,4.417z M436.924,78.98c-0.907-8.964-5.835-16.683-12.894-21.135c-3.553,4.171-8.405,6.886-13.759,6.886  c-5.446,0-10.378-2.81-13.944-7.105c-7.249,4.416-12.333,12.236-13.258,21.349c-7.776-7.232-12.653-17.542-12.653-28.975  c0-21.827,17.757-39.583,39.584-39.583c21.826,0,39.583,17.757,39.583,39.583C449.583,61.436,444.703,71.748,436.924,78.98z"></path><path d="M547.806,66.855c-3.538-1.954-5.704-4.609-6.197-5.586c-0.213-0.496,0.131-3.257,4.322-9.24  c0.679-0.809,1.333-1.693,1.953-2.627l0.003,0.002c0.01-0.015,0.018-0.03,0.027-0.045c0.02-0.03,0.04-0.056,0.06-0.086l-0.006-0.004  c3.355-5.189,5.282-11.652,5.282-17.764c0-14.267-9.995-25.025-23.249-25.025c-13.255,0-23.251,10.759-23.251,25.025  c0,6.098,1.922,12.551,5.27,17.743l-0.007,0.004c0.022,0.035,0.048,0.068,0.071,0.103c0.01,0.015,0.019,0.032,0.028,0.047  l0.003-0.002c0.544,0.818,1.124,1.612,1.736,2.357c4.303,6.173,4.639,9.005,4.417,9.509c-0.497,0.983-2.688,3.663-6.296,5.666  c-10.823,6.018-21.39,12.833-21.39,24.088v2.5h78.834v-2.5C569.417,79.736,558.74,72.896,547.806,66.855z M495.848,88.521  c1.395-6.456,8.23-11.478,18.554-17.217c4.202-2.335,7.264-5.671,8.33-7.783c0.565-1.119,2.284-4.523-4.838-14.707l-0.121-0.159  c-0.531-0.644-1.037-1.332-1.509-2.044c-2.867-4.416-4.514-9.917-4.514-15.105c0-11.604,7.676-20.025,18.251-20.025  c10.574,0,18.249,8.422,18.249,20.025c0,5.199-1.647,10.703-4.518,15.113c-0.539,0.813-1.106,1.578-1.691,2.267l-0.138,0.179  c-7.02,9.983-5.318,13.35-4.76,14.457c1.065,2.109,4.1,5.423,8.244,7.712C555.83,77,562.743,82.045,564.151,88.521H495.848z"></path></svg>

<?xml version="1.0" encoding="UTF-8" standalone="no"?>
<!DOCTYPE svg PUBLIC "-//W3C//DTD SVG 1.1//EN" "http://www.w3.org/Graphics/SVG/1.1/DTD/svg11.dtd">
<svg width="100%" height="100%" viewBox="0 0 92 92" version="1.1" xmlns="http://www.w3.org/2000/svg" xmlns:xlink="http://www.w3.org/1999/xlink" xml:space="preserve" xmlns:serif="http://www.serif.com/" style="fill-rule:evenodd;clip-rule:evenodd;stroke-linejoin:round;stroke-miterlimit:1.41421;">
    <g transform="matrix(1,0,0,1,-4.416,-4.417)">
        <g transform="matrix(1,0,0,1,-360,0)">
            <path d="M425.153,38.639C425.153,47.77 418.37,56.398 410.001,56.398C401.632,56.398 394.847,47.77 394.847,38.639C394.847,29.507 401.631,23.329 410.001,23.329C418.369,23.329 425.153,29.507 425.153,38.639Z" style="fill-rule:nonzero;"/>
        </g>
        <g transform="matrix(1,0,0,1,-360,0)">
            <path d="M410,4.417C384.865,4.417 364.416,24.866 364.416,50C364.416,75.134 384.865,95.584 410,95.584C435.135,95.584 455.583,75.135 455.583,50C455.583,24.865 435.135,4.417 410,4.417ZM436.924,78.98C436.017,70.016 431.089,62.297 424.03,57.845C420.477,62.016 415.625,64.731 410.271,64.731C404.825,64.731 399.893,61.921 396.327,57.626C389.078,62.042 383.994,69.862 383.069,78.975C375.293,71.743 370.416,61.433 370.416,50C370.416,28.173 388.173,10.417 410,10.417C431.826,10.417 449.583,28.174 449.583,50C449.583,61.436 444.703,71.748 436.924,78.98Z" style="fill-rule:nonzero;"/>
        </g>
    </g>
</svg>
